X: 1733
T: Äppelbo Gånglåt
R: polka
M: 2/4
K: Gmajor
D|:GG/D/ GB|d3 B/c/|dB/c/ dd/e/|cB AA/B/|
cc/d/ ed/c/|B/c/B/A/ GF/G/|A/B/A/F/ DE/F/|1 G2-|G D:|2 G2-|G B/d/||
|:g g g f/e/|f f f g/f/|ee e/g/f/e/|e d/^c/ de/d/|
cc/B/ AG/A/|B/c/B/A/ GF/G/|A/B/A/F/ DE/F/|1 G2-|G B/d/:|2 G2-|G2||

